images/6878030.svg

<?xml version="1.0" encoding="UTF-8"?>
<svg xmlns="http://www.w3.org/2000/svg" xmlns:xlink="http://www.w3.org/1999/xlink" width="300pt" height="300pt" viewBox="0 0 300 300" version="1.1">
<defs>
<g>
<symbol overflow="visible" id="glyph0-0">
<path style="stroke:none;" d="M 0.453125 1.59375 L 0.453125 -6.34375 L 4.953125 -6.34375 L 4.953125 1.59375 Z M 0.953125 1.09375 L 4.453125 1.09375 L 4.453125 -5.84375 L 0.953125 -5.84375 Z M 0.953125 1.09375 "/>
</symbol>
<symbol overflow="visible" id="glyph0-1">
<path style="stroke:none;" d="M 0.890625 -6.5625 L 2.078125 -6.5625 L 4.984375 -1.078125 L 4.984375 -6.5625 L 5.84375 -6.5625 L 5.84375 0 L 4.65625 0 L 1.75 -5.484375 L 1.75 0 L 0.890625 0 Z M 0.890625 -6.5625 "/>
</symbol>
</g>
</defs>
<g id="surface55389">
<rect x="0" y="0" width="300" height="300" style="fill:rgb(100%,100%,100%);fill-opacity:1;stroke:none;"/>
<path style="fill:none;stroke-width:1.2;stroke-linecap:butt;stroke-linejoin:miter;stroke:rgb(0%,0%,0%);stroke-opacity:1;stroke-miterlimit:10;" d="M 190.832031 122.730469 L 194.90625 142.179688 "/>
<path style="fill:none;stroke-width:1.2;stroke-linecap:butt;stroke-linejoin:miter;stroke:rgb(0%,0%,0%);stroke-opacity:1;stroke-miterlimit:10;" d="M 194.90625 142.179688 L 181.566406 156.90625 "/>
<path style="fill:none;stroke-width:1.2;stroke-linecap:butt;stroke-linejoin:miter;stroke:rgb(0%,0%,0%);stroke-opacity:1;stroke-miterlimit:10;" d="M 197.035156 146.789062 L 186.363281 158.570312 "/>
<path style="fill:none;stroke-width:1.2;stroke-linecap:butt;stroke-linejoin:miter;stroke:rgb(0%,0%,100%);stroke-opacity:1;stroke-miterlimit:10;" d="M 213.035156 150.316406 L 203.96875 146.246094 "/>
<path style="fill:none;stroke-width:1.2;stroke-linecap:butt;stroke-linejoin:miter;stroke:rgb(0%,0%,0%);stroke-opacity:1;stroke-miterlimit:10;" d="M 203.96875 146.246094 L 194.90625 142.179688 "/>
<path style="fill:none;stroke-width:1.2;stroke-linecap:butt;stroke-linejoin:miter;stroke:rgb(0%,0%,0%);stroke-opacity:1;stroke-miterlimit:10;" d="M 181.566406 156.90625 L 191.449219 174.144531 "/>
<path style="fill:none;stroke-width:1.2;stroke-linecap:butt;stroke-linejoin:miter;stroke:rgb(0%,0%,0%);stroke-opacity:1;stroke-miterlimit:10;" d="M 181.566406 156.90625 L 161.808594 154.769531 "/>
<path style="fill:none;stroke-width:1.2;stroke-linecap:butt;stroke-linejoin:miter;stroke:rgb(0%,0%,0%);stroke-opacity:1;stroke-miterlimit:10;" d="M 191.449219 174.144531 L 201.171875 172.105469 "/>
<path style="fill:none;stroke-width:1.2;stroke-linecap:butt;stroke-linejoin:miter;stroke:rgb(0%,0%,100%);stroke-opacity:1;stroke-miterlimit:10;" d="M 201.171875 172.105469 L 210.898438 170.070312 "/>
<path style="fill:none;stroke-width:1.2;stroke-linecap:butt;stroke-linejoin:miter;stroke:rgb(0%,0%,0%);stroke-opacity:1;stroke-miterlimit:10;" d="M 192.433594 169.160156 L 200.214844 167.53125 "/>
<path style="fill:none;stroke-width:1.2;stroke-linecap:butt;stroke-linejoin:miter;stroke:rgb(0%,0%,100%);stroke-opacity:1;stroke-miterlimit:10;" d="M 200.214844 167.53125 L 207.996094 165.902344 "/>
<path style="fill:none;stroke-width:1.2;stroke-linecap:butt;stroke-linejoin:miter;stroke:rgb(0%,0%,0%);stroke-opacity:1;stroke-miterlimit:10;" d="M 191.449219 174.144531 L 183.3125 192.273438 "/>
<path style="fill:none;stroke-width:1.2;stroke-linecap:butt;stroke-linejoin:miter;stroke:rgb(0%,0%,100%);stroke-opacity:1;stroke-miterlimit:10;" d="M 210.898438 170.070312 L 213.035156 150.316406 "/>
<path style=" stroke:none;fill-rule:nonzero;fill:rgb(100%,100%,100%);fill-opacity:1;" d="M 207.898438 164.570312 L 214.898438 164.570312 L 214.898438 175.570312 L 207.898438 175.570312 Z M 207.898438 164.570312 "/>
<g style="fill:rgb(0%,0%,100%);fill-opacity:1;">
  <use xlink:href="#glyph0-1" x="207.898438" y="173.233398"/>
</g>
<path style="fill:none;stroke-width:1.2;stroke-linecap:butt;stroke-linejoin:miter;stroke:rgb(0%,0%,100%);stroke-opacity:1;stroke-miterlimit:10;" d="M 213.035156 150.316406 L 221.652344 145.375 "/>
<path style="fill:none;stroke-width:1.2;stroke-linecap:butt;stroke-linejoin:miter;stroke:rgb(0%,0%,0%);stroke-opacity:1;stroke-miterlimit:10;" d="M 221.652344 145.375 L 230.273438 140.433594 "/>
<path style=" stroke:none;fill-rule:nonzero;fill:rgb(100%,100%,100%);fill-opacity:1;" d="M 210.035156 144.816406 L 217.035156 144.816406 L 217.035156 155.816406 L 210.035156 155.816406 Z M 210.035156 144.816406 "/>
<g style="fill:rgb(0%,0%,100%);fill-opacity:1;">
  <use xlink:href="#glyph0-1" x="210.035156" y="153.479492"/>
</g>
<path style="fill:none;stroke-width:1.2;stroke-linecap:butt;stroke-linejoin:miter;stroke:rgb(0%,0%,0%);stroke-opacity:1;stroke-miterlimit:10;" d="M 230.273438 140.433594 L 247.449219 150.417969 "/>
<path style="fill:none;stroke-width:1.2;stroke-linecap:butt;stroke-linejoin:miter;stroke:rgb(0%,0%,0%);stroke-opacity:1;stroke-miterlimit:10;" d="M 234.339844 137.390625 L 248.082031 145.378906 "/>
<path style="fill:none;stroke-width:1.2;stroke-linecap:butt;stroke-linejoin:miter;stroke:rgb(0%,0%,0%);stroke-opacity:1;stroke-miterlimit:10;" d="M 230.332031 120.5625 L 230.273438 140.433594 "/>
<path style="fill:none;stroke-width:1.2;stroke-linecap:butt;stroke-linejoin:miter;stroke:rgb(0%,0%,0%);stroke-opacity:1;stroke-miterlimit:10;" d="M 247.449219 150.417969 L 264.691406 140.535156 "/>
<path style="fill:none;stroke-width:1.2;stroke-linecap:butt;stroke-linejoin:miter;stroke:rgb(0%,0%,0%);stroke-opacity:1;stroke-miterlimit:10;" d="M 264.691406 140.535156 L 264.75 120.667969 "/>
<path style="fill:none;stroke-width:1.2;stroke-linecap:butt;stroke-linejoin:miter;stroke:rgb(0%,0%,0%);stroke-opacity:1;stroke-miterlimit:10;" d="M 260.019531 138.535156 L 260.070312 122.640625 "/>
<path style="fill:none;stroke-width:1.2;stroke-linecap:butt;stroke-linejoin:miter;stroke:rgb(0%,0%,0%);stroke-opacity:1;stroke-miterlimit:10;" d="M 264.75 120.667969 L 247.570312 110.679688 "/>
<path style="fill:none;stroke-width:1.2;stroke-linecap:butt;stroke-linejoin:miter;stroke:rgb(0%,0%,0%);stroke-opacity:1;stroke-miterlimit:10;" d="M 247.570312 110.679688 L 230.332031 120.5625 "/>
<path style="fill:none;stroke-width:1.2;stroke-linecap:butt;stroke-linejoin:miter;stroke:rgb(0%,0%,0%);stroke-opacity:1;stroke-miterlimit:10;" d="M 248.171875 115.722656 L 234.382812 123.628906 "/>
<path style="fill:none;stroke-width:1.2;stroke-linecap:butt;stroke-linejoin:miter;stroke:rgb(0%,0%,0%);stroke-opacity:1;stroke-miterlimit:10;" d="M 161.808594 154.769531 L 155.945312 162.789062 "/>
<path style="fill:none;stroke-width:1.2;stroke-linecap:butt;stroke-linejoin:miter;stroke:rgb(0%,0%,100%);stroke-opacity:1;stroke-miterlimit:10;" d="M 155.945312 162.789062 L 150.082031 170.808594 "/>
<path style="fill:none;stroke-width:1.2;stroke-linecap:butt;stroke-linejoin:miter;stroke:rgb(0%,0%,0%);stroke-opacity:1;stroke-miterlimit:10;" d="M 156.863281 153.613281 L 152.171875 160.027344 "/>
<path style="fill:none;stroke-width:1.2;stroke-linecap:butt;stroke-linejoin:miter;stroke:rgb(0%,0%,100%);stroke-opacity:1;stroke-miterlimit:10;" d="M 152.171875 160.027344 L 147.480469 166.445312 "/>
<path style="fill:none;stroke-width:1.2;stroke-linecap:butt;stroke-linejoin:miter;stroke:rgb(0%,0%,100%);stroke-opacity:1;stroke-miterlimit:10;" d="M 150.082031 170.808594 L 130.324219 168.671875 "/>
<path style=" stroke:none;fill-rule:nonzero;fill:rgb(100%,100%,100%);fill-opacity:1;" d="M 147.082031 165.308594 L 154.082031 165.308594 L 154.082031 176.308594 L 147.082031 176.308594 Z M 147.082031 165.308594 "/>
<g style="fill:rgb(0%,0%,100%);fill-opacity:1;">
  <use xlink:href="#glyph0-1" x="147.082031" y="173.97168"/>
</g>
<path style="fill:none;stroke-width:1.2;stroke-linecap:butt;stroke-linejoin:miter;stroke:rgb(0%,0%,100%);stroke-opacity:1;stroke-miterlimit:10;" d="M 130.324219 168.671875 L 126.3125 159.582031 "/>
<path style="fill:none;stroke-width:1.2;stroke-linecap:butt;stroke-linejoin:miter;stroke:rgb(0%,0%,0%);stroke-opacity:1;stroke-miterlimit:10;" d="M 126.3125 159.582031 L 122.300781 150.492188 "/>
<path style="fill:none;stroke-width:1.2;stroke-linecap:butt;stroke-linejoin:miter;stroke:rgb(0%,0%,0%);stroke-opacity:1;stroke-miterlimit:10;" d="M 118.597656 184.710938 L 124.460938 176.691406 "/>
<path style="fill:none;stroke-width:1.2;stroke-linecap:butt;stroke-linejoin:miter;stroke:rgb(0%,0%,100%);stroke-opacity:1;stroke-miterlimit:10;" d="M 124.460938 176.691406 L 130.324219 168.671875 "/>
<path style=" stroke:none;fill-rule:nonzero;fill:rgb(100%,100%,100%);fill-opacity:1;" d="M 127.324219 163.171875 L 134.324219 163.171875 L 134.324219 174.171875 L 127.324219 174.171875 Z M 127.324219 163.171875 "/>
<g style="fill:rgb(0%,0%,100%);fill-opacity:1;">
  <use xlink:href="#glyph0-1" x="127.324219" y="171.834961"/>
</g>
<path style="fill:none;stroke-width:1.2;stroke-linecap:butt;stroke-linejoin:miter;stroke:rgb(0%,0%,0%);stroke-opacity:1;stroke-miterlimit:10;" d="M 122.300781 150.492188 L 102.542969 148.355469 "/>
<path style="fill:none;stroke-width:1.2;stroke-linecap:butt;stroke-linejoin:miter;stroke:rgb(0%,0%,0%);stroke-opacity:1;stroke-miterlimit:10;" d="M 102.542969 148.355469 L 96.679688 156.378906 "/>
<path style="fill:none;stroke-width:1.2;stroke-linecap:butt;stroke-linejoin:miter;stroke:rgb(0%,0%,100%);stroke-opacity:1;stroke-miterlimit:10;" d="M 96.679688 156.378906 L 90.816406 164.398438 "/>
<path style="fill:none;stroke-width:1.2;stroke-linecap:butt;stroke-linejoin:miter;stroke:rgb(0%,0%,100%);stroke-opacity:1;stroke-miterlimit:10;" d="M 90.816406 164.398438 L 94.828125 173.484375 "/>
<path style="fill:none;stroke-width:1.2;stroke-linecap:butt;stroke-linejoin:miter;stroke:rgb(0%,0%,0%);stroke-opacity:1;stroke-miterlimit:10;" d="M 94.828125 173.484375 L 98.84375 182.574219 "/>
<path style="fill:none;stroke-width:1.2;stroke-linecap:butt;stroke-linejoin:miter;stroke:rgb(0%,0%,100%);stroke-opacity:1;stroke-miterlimit:10;" d="M 90.816406 164.398438 L 80.9375 163.328125 "/>
<path style="fill:none;stroke-width:1.2;stroke-linecap:butt;stroke-linejoin:miter;stroke:rgb(0%,0%,0%);stroke-opacity:1;stroke-miterlimit:10;" d="M 80.9375 163.328125 L 71.058594 162.261719 "/>
<path style=" stroke:none;fill-rule:nonzero;fill:rgb(100%,100%,100%);fill-opacity:1;" d="M 87.816406 158.898438 L 94.816406 158.898438 L 94.816406 169.898438 L 87.816406 169.898438 Z M 87.816406 158.898438 "/>
<g style="fill:rgb(0%,0%,100%);fill-opacity:1;">
  <use xlink:href="#glyph0-1" x="87.816406" y="167.561523"/>
</g>
<path style="fill:none;stroke-width:1.2;stroke-linecap:butt;stroke-linejoin:miter;stroke:rgb(0%,0%,0%);stroke-opacity:1;stroke-miterlimit:10;" d="M 98.84375 182.574219 L 118.597656 184.710938 "/>
<path style="fill:none;stroke-width:1.2;stroke-linecap:butt;stroke-linejoin:miter;stroke:rgb(0%,0%,0%);stroke-opacity:1;stroke-miterlimit:10;" d="M 71.058594 162.261719 L 63.03125 144.082031 "/>
<path style="fill:none;stroke-width:1.2;stroke-linecap:butt;stroke-linejoin:miter;stroke:rgb(0%,0%,0%);stroke-opacity:1;stroke-miterlimit:10;" d="M 63.03125 144.082031 L 74.761719 128.042969 "/>
<path style="fill:none;stroke-width:1.2;stroke-linecap:butt;stroke-linejoin:miter;stroke:rgb(0%,0%,0%);stroke-opacity:1;stroke-miterlimit:10;" d="M 60.429688 139.71875 L 69.8125 126.886719 "/>
<path style="fill:none;stroke-width:1.2;stroke-linecap:butt;stroke-linejoin:miter;stroke:rgb(0%,0%,0%);stroke-opacity:1;stroke-miterlimit:10;" d="M 43.277344 141.945312 L 63.03125 144.082031 "/>
<path style="fill:none;stroke-width:1.2;stroke-linecap:butt;stroke-linejoin:miter;stroke:rgb(0%,0%,0%);stroke-opacity:1;stroke-miterlimit:10;" d="M 74.761719 128.042969 L 66.734375 109.867188 "/>
<path style="fill:none;stroke-width:1.2;stroke-linecap:butt;stroke-linejoin:miter;stroke:rgb(0%,0%,0%);stroke-opacity:1;stroke-miterlimit:10;" d="M 66.734375 109.867188 L 46.976562 107.726562 "/>
<path style="fill:none;stroke-width:1.2;stroke-linecap:butt;stroke-linejoin:miter;stroke:rgb(0%,0%,0%);stroke-opacity:1;stroke-miterlimit:10;" d="M 64.253906 114.300781 L 48.449219 112.589844 "/>
<path style="fill:none;stroke-width:1.2;stroke-linecap:butt;stroke-linejoin:miter;stroke:rgb(0%,0%,0%);stroke-opacity:1;stroke-miterlimit:10;" d="M 46.976562 107.726562 L 35.25 123.769531 "/>
<path style="fill:none;stroke-width:1.2;stroke-linecap:butt;stroke-linejoin:miter;stroke:rgb(0%,0%,0%);stroke-opacity:1;stroke-miterlimit:10;" d="M 35.25 123.769531 L 43.277344 141.945312 "/>
<path style="fill:none;stroke-width:1.2;stroke-linecap:butt;stroke-linejoin:miter;stroke:rgb(0%,0%,0%);stroke-opacity:1;stroke-miterlimit:10;" d="M 40.328125 123.699219 L 46.75 138.238281 "/>
</g>
</svg>

<svg xmlns="http://www.w3.org/2000/svg" xmlns:xlink="http://www.w3.org/1999/xlink" width="300pt" height="300pt" viewBox="0 0 300 300"><defs><symbol overflow="visible"><path d="M.453 1.594v-7.938h4.5v7.938zm.5-.5h3.5v-6.938h-3.5zm0 0"/></symbol><symbol overflow="visible" id="a"><path d="M.89-6.563H2.08l2.906 5.485v-5.484h.86V0H4.656L1.75-5.484V0H.89zm0 0"/></symbol></defs><g><path fill="#fff" d="M0 0h300v300H0z"/><path d="M190.832 122.73l4.074 19.45M194.906 142.18l-13.34 14.726M197.035 146.79l-10.672 11.78" stroke-width="1.2" stroke="#000" stroke-miterlimit="10" fill="none"/><path d="M213.035 150.316l-9.066-4.07" stroke-width="1.2" stroke="#00f" stroke-miterlimit="10" fill="none"/><path d="M203.97 146.246l-9.064-4.066M181.566 156.906l9.883 17.24M181.566 156.906l-19.757-2.136M191.45 174.145l9.722-2.04" stroke-width="1.2" stroke="#000" stroke-miterlimit="10" fill="none"/><path d="M201.172 172.105l9.726-2.035" stroke-width="1.2" stroke="#00f" stroke-miterlimit="10" fill="none"/><path d="M192.434 169.16l7.78-1.63" stroke-width="1.2" stroke="#000" stroke-miterlimit="10" fill="none"/><path d="M200.215 167.53l7.78-1.628" stroke-width="1.2" stroke="#00f" stroke-miterlimit="10" fill="none"/><path d="M191.45 174.145l-8.137 18.128" stroke-width="1.2" stroke="#000" stroke-miterlimit="10" fill="none"/><path d="M210.898 170.07l2.137-19.754" stroke-width="1.2" stroke="#00f" stroke-miterlimit="10" fill="none"/><path d="M207.898 164.57h7v11h-7zm0 0" fill="#fff"/><use xlink:href="#a" x="207.898" y="173.233" fill="#00f"/><path d="M213.035 150.316l8.617-4.94" stroke-width="1.2" stroke="#00f" stroke-miterlimit="10" fill="none"/><path d="M221.652 145.375l8.62-4.94" stroke-width="1.2" stroke="#000" stroke-miterlimit="10" fill="none"/><path d="M210.035 144.816h7v11h-7zm0 0" fill="#fff"/><use xlink:href="#a" x="210.035" y="153.479" fill="#00f"/><path d="M230.273 140.434l17.176 9.984M234.34 137.39l13.742 7.99M230.332 120.563l-.06 19.87M247.45 150.418l17.24-9.883M264.69 140.535l.06-19.867M260.02 138.535l.05-15.894M264.75 120.668l-17.18-9.988M247.57 110.68l-17.238 9.882M248.172 115.723l-13.79 7.906M161.81 154.77l-5.865 8.02" stroke-width="1.2" stroke="#000" stroke-miterlimit="10" fill="none"/><path d="M155.945 162.79l-5.863 8.02" stroke-width="1.2" stroke="#00f" stroke-miterlimit="10" fill="none"/><path d="M156.863 153.613l-4.69 6.414" stroke-width="1.2" stroke="#000" stroke-miterlimit="10" fill="none"/><path d="M152.172 160.027l-4.692 6.418M150.082 170.81l-19.758-2.138" stroke-width="1.2" stroke="#00f" stroke-miterlimit="10" fill="none"/><path d="M147.082 165.31h7v11h-7zm0 0" fill="#fff"/><use xlink:href="#a" x="147.082" y="173.972" fill="#00f"/><path d="M130.324 168.672l-4.012-9.09" stroke-width="1.2" stroke="#00f" stroke-miterlimit="10" fill="none"/><path d="M126.313 159.582l-4.012-9.09M118.598 184.71l5.863-8.02" stroke-width="1.2" stroke="#000" stroke-miterlimit="10" fill="none"/><path d="M124.46 176.69l5.864-8.018" stroke-width="1.2" stroke="#00f" stroke-miterlimit="10" fill="none"/><path d="M127.324 163.172h7v11h-7zm0 0" fill="#fff"/><use xlink:href="#a" x="127.324" y="171.835" fill="#00f"/><path d="M122.3 150.492l-19.757-2.137M102.543 148.355l-5.863 8.024" stroke-width="1.2" stroke="#000" stroke-miterlimit="10" fill="none"/><path d="M96.68 156.38l-5.864 8.018M90.816 164.398l4.012 9.086" stroke-width="1.2" stroke="#00f" stroke-miterlimit="10" fill="none"/><path d="M94.828 173.484l4.016 9.09" stroke-width="1.2" stroke="#000" stroke-miterlimit="10" fill="none"/><path d="M90.816 164.398l-9.88-1.07" stroke-width="1.2" stroke="#00f" stroke-miterlimit="10" fill="none"/><path d="M80.938 163.328l-9.88-1.066" stroke-width="1.2" stroke="#000" stroke-miterlimit="10" fill="none"/><path d="M87.816 158.898h7v11h-7zm0 0" fill="#fff"/><use xlink:href="#a" x="87.816" y="167.562" fill="#00f"/><path d="M98.844 182.574l19.754 2.137M71.06 162.262l-8.03-18.18M63.03 144.082l11.732-16.04M60.43 139.72l9.383-12.833M43.277 141.945l19.754 2.137M74.762 128.043l-8.028-18.176M66.734 109.867l-19.757-2.14M64.254 114.3l-15.805-1.71M46.977 107.727L35.25 123.77M35.25 123.77l8.027 18.175M40.328 123.7l6.422 14.538" stroke-width="1.2" stroke="#000" stroke-miterlimit="10" fill="none"/></g></svg>
